assets/img/ca.svg

<?xml version="1.0" encoding="UTF-8"?>
<svg width="98px" height="80px" viewBox="0 0 98 80" version="1.1" xmlns="http://www.w3.org/2000/svg" xmlns:xlink="http://www.w3.org/1999/xlink">
    <!-- Generator: Sketch 52.2 (67145) - http://www.bohemiancoding.com/sketch -->
    <title>CA_Technologies_logo</title>
    <desc>Created with Sketch.</desc>
    <g id="wireframe" stroke="none" stroke-width="1" fill="none" fill-rule="evenodd">
        <g id="Desktop-HD-Copy-2" transform="translate(-759.000000, -3070.000000)" fill="#272638" fill-rule="nonzero">
            <g id="logos" transform="translate(583.000000, 3047.000000)">
                <g id="CA_Technologies_logo" transform="translate(176.000000, 23.000000)">
                    <path d="M1.28333333,67.1242857 L1.28333333,64 L3.53888889,64 L3.53888889,67.1242857 L5.36666667,67.1242857 L5.36666667,68.9371429 L3.53888889,68.9371429 L3.53888889,74.26 C3.53888889,74.7614286 3.77222222,74.9157143 4.35555556,74.9157143 C4.70555556,74.9157143 5.05555556,74.8 5.36666667,74.7228571 L5.36666667,76.5742857 C4.74444444,76.6514286 4.2,76.7285714 3.57777778,76.7285714 C1.90555556,76.7285714 1.28333333,75.88 1.28333333,74.5685714 L1.28333333,68.9757143 L0,68.9757143 L0,67.1628571 L1.28333333,67.1242857 Z" id="path2"></path>
                    <path d="M8.21666667,72.2071429 C8.25555556,74.1357143 9.11111111,74.9071429 10.1611111,74.9071429 C11.2111111,74.9071429 11.6777778,74.4442857 12.2611111,73.7885714 L13.8944444,74.7914286 C13.0388889,76.1414286 11.7555556,76.72 9.96666667,76.72 C7.51666667,76.72 6,74.83 6,71.86 C6,68.89 7.51666667,67 10.0833333,67 C12.5333333,67 13.9333333,69.0442857 13.9333333,71.32 L13.9333333,72.2457143 L8.21666667,72.2457143 L8.21666667,72.2071429 Z M11.8333333,70.7028571 C11.7944444,69.3914286 11.0944444,68.6585714 10.0444444,68.6585714 C8.95555556,68.6585714 8.29444444,69.43 8.25555556,70.7028571 L11.8333333,70.7028571 Z" id="path4"></path>
                    <path d="M21.95,70.2014286 C21.6,69.3914286 21.2111111,68.7742857 20.0833333,68.7742857 C18.8388889,68.7742857 18.2555556,69.7385714 18.2555556,71.86 C18.2555556,73.9428571 18.8388889,74.9071429 20.1611111,74.9071429 C21.1333333,74.9071429 21.6777778,74.2514286 22.1444444,73.4028571 L23.8555556,74.3671429 C22.9611111,76.0257143 21.7944444,76.72 20.0833333,76.72 C17.5555556,76.72 16,74.83 16,71.86 C16,68.89 17.5166667,67 20.0833333,67 C21.8722222,67 23.2722222,67.9257143 23.7777778,69.5071429 L21.95,70.2014286 Z" id="path6"></path>
                    <path d="M25,77.0371429 L25,64 L27.2555556,64 L27.2555556,68.6671429 C27.9555556,68.0885714 28.85,67.4714286 29.9388889,67.4714286 C31.8055556,67.4714286 32.7388889,68.7057143 32.7388889,70.5957143 L32.7388889,77.0371429 L30.4833333,77.0371429 L30.4833333,70.9428571 C30.4833333,69.67 30.0944444,69.2842857 29.3166667,69.2842857 C28.3444444,69.2842857 27.6055556,69.8628571 27.2166667,70.2871429 L27.2166667,77.0757143 L25,77.0757143 L25,77.0371429 Z" id="path8"></path>
                    <path d="M35,76.5657143 L35,67.1928571 L37.0611111,67.1928571 L37.0611111,68.1957143 C37.8777778,67.6171429 38.85,67 39.9388889,67 C41.8055556,67 42.7,68.2342857 42.7,70.1242857 L42.7,76.5657143 L40.4833333,76.5657143 L40.4833333,70.4714286 C40.4833333,69.1985714 40.0944444,68.8128571 39.3166667,68.8128571 C38.3444444,68.8128571 37.6055556,69.3914286 37.2166667,69.8157143 L37.2166667,76.6042857 L35,76.6042857 L35,76.5657143 Z" id="path10"></path>
                    <path d="M48.0833333,67 C50.65,67 52.1666667,68.89 52.1666667,71.86 C52.1666667,74.83 50.65,76.72 48.0833333,76.72 C45.5166667,76.72 44,74.83 44,71.86 C44.0388889,68.89 45.5555556,67 48.0833333,67 Z M48.0833333,68.8128571 C46.8388889,68.8128571 46.2555556,69.7771429 46.2555556,71.8985714 C46.2555556,73.9814286 46.8388889,74.9457143 48.0833333,74.9457143 C49.3277778,74.9457143 49.9111111,73.9814286 49.9111111,71.8985714 C49.95,69.7771429 49.3277778,68.8128571 48.0833333,68.8128571 Z" id="path12"></path>
                    <polygon id="path14" points="54 77.0371429 54 64 56.2166667 64 56.2166667 73.7585714 56.2166667 77.0371429"></polygon>
                    <path d="M62.0833333,67 C64.65,67 66.1666667,68.89 66.1666667,71.86 C66.1666667,74.83 64.65,76.72 62.0833333,76.72 C59.5166667,76.72 58,74.83 58,71.86 C58.0388889,68.89 59.5555556,67 62.0833333,67 Z M62.0833333,68.8128571 C60.8388889,68.8128571 60.2555556,69.7771429 60.2555556,71.8985714 C60.2555556,73.9814286 60.8388889,74.9457143 62.0833333,74.9457143 C63.3277778,74.9457143 63.9111111,73.9814286 63.9111111,71.8985714 C63.95,69.7771429 63.3666667,68.8128571 62.0833333,68.8128571 Z" id="path16"></path>
                    <path d="M75.5944444,68.5075134 C75.0888889,68.5075134 74.5055556,68.5075134 74.1555556,68.7389419 C74.4666667,69.1246562 74.6611111,69.6646562 74.6611111,70.3975134 C74.6611111,72.1717991 73.4555556,73.4446562 71.1222222,73.4446562 C70.15,73.4446562 69.3722222,73.4832276 69.3722222,74.0232276 C69.3722222,75.5275134 75.5555556,73.4832276 75.5555556,77.2246562 C75.5555556,78.5746562 74.1944444,80.0017991 71.2,80.0017991 C68.6722222,80.0017991 67,79.2303705 67,77.7646562 C67,76.6075134 67.8944444,76.0289419 68.6722222,76.0289419 L68.6722222,75.9517991 C68.2444444,75.6817991 67.2722222,75.4503705 67.2722222,74.4475134 C67.2722222,73.5603705 68.3222222,72.8660848 68.75,72.7503705 C67.9722222,72.1332276 67.35,71.4003705 67.35,70.2817991 C67.35,68.6232276 68.5944444,67.0032276 71.0444444,67.0032276 C71.8222222,67.0032276 72.7944444,67.3503705 73.3388889,67.8517991 C73.7666667,67.2732276 74.4666667,66.9646562 75.5555556,67.0032276 L75.5555556,68.5075134 L75.5944444,68.5075134 Z M69.0611111,77.4560848 C69.0611111,78.1503705 69.6833333,78.4975134 71.55,78.4975134 C72.9888889,78.4975134 73.4944444,77.7646562 73.4944444,77.4560848 C73.4944444,77.0317991 72.8333333,76.3760848 70.6555556,76.3760848 C69.4111111,76.3760848 69.0611111,77.0317991 69.0611111,77.4560848 Z M71.0444444,68.6232276 C70.0722222,68.6232276 69.4111111,69.3175134 69.4111111,70.1660848 C69.4111111,71.0146562 70.0722222,71.7089419 71.0444444,71.7089419 C71.9,71.7089419 72.5611111,71.0146562 72.5611111,70.1660848 C72.6,69.3175134 71.9,68.6232276 71.0444444,68.6232276 Z" id="path18"></path>
                    <path d="M78,66.0828571 L78,64 L80.2166667,64 L80.2166667,64.9257143 L80.2166667,66.0828571 L78,66.0828571 Z M80.2555556,74.4528571 L80.2555556,77.23 L78.0388889,77.23 L78.0388889,67.8571429 L80.2555556,67.8571429 L80.2555556,74.4528571 Z" id="path20"></path>
                    <path d="M84.2166667,72.2071429 C84.2555556,74.1357143 85.1111111,74.9071429 86.1611111,74.9071429 C87.2111111,74.9071429 87.6777778,74.4442857 88.2611111,73.7885714 L89.8944444,74.7914286 C89.0388889,76.1414286 87.7555556,76.72 85.9666667,76.72 C83.5166667,76.72 82,74.83 82,71.86 C82,68.89 83.5166667,67 86.0833333,67 C88.5333333,67 89.9333333,69.0442857 89.9333333,71.32 L89.9333333,72.2457143 L84.2166667,72.2457143 L84.2166667,72.2071429 Z M87.8333333,70.7028571 C87.7944444,69.3914286 87.0944444,68.6585714 86.0055556,68.6585714 C84.9166667,68.6585714 84.2166667,69.43 84.2166667,70.7028571 L87.8333333,70.7028571 Z" id="path22"></path>
                    <path d="M96.2888889,69.6614286 C95.8222222,69.16 95.2388889,68.6585714 94.5388889,68.6585714 C93.6833333,68.6585714 93.2944444,69.0057143 93.2944444,69.5842857 C93.2944444,71.2042857 98,70.51 98,73.9428571 C98,75.8714286 96.5222222,76.7585714 94.5388889,76.7585714 C93.0611111,76.7585714 91.8166667,76.1028571 91,74.8685714 L92.5166667,73.75 C93.0222222,74.4828571 93.7222222,75.1 94.6944444,75.1 C95.4722222,75.1 96.0166667,74.6757143 96.0166667,74.02 C96.0166667,72.4385714 91.3111111,73.0171429 91.3111111,69.7385714 C91.3111111,68.0028571 92.7888889,67 94.4222222,67 C95.6666667,67 96.9111111,67.4628571 97.7277778,68.4271429 L96.2888889,69.6614286 Z" id="path24"></path>
                    <path d="M67.3378341,41.0014286 C65.5489452,43.74 62.6711674,45.4371429 59.4822785,45.4371429 C55.126723,45.4371429 51.5100563,43.47 51.5100563,38.8028571 C51.5100563,31.8985714 61.6600563,29.4685714 69.4378341,29.0057143 L69.4378341,31.05 C69.476723,35.5242857 69.3989452,37.9157143 67.3378341,41.0014286 Z M52.8711674,16.2 C54.0378341,13.0757143 57.1878341,11.7257143 61.4656119,11.7257143 C67.5711674,11.7257143 69.3211674,15.9685714 69.3989452,19.4785714 L69.4378341,21.1757143 C52.5600563,21.9857143 36.6933896,25.11 37.0045008,40.4228571 C37.2378341,51.1457143 46.9989452,55.5428571 53.726723,55.5042857 C61.5433896,55.5042857 65.8989452,53.4214286 70.2156119,48.1371429 C70.2933896,50.3742857 70.5656119,52.7271429 70.9545008,54.4628571 L86.0822785,54.4628571 C85.226723,51.84 85.0322785,49.2171429 85.0322785,46.4785714 L85.0322785,18.6685714 C85.0322785,11.9185714 83.7489452,8.13857143 80.0933896,4.86 C76.6322785,1.73571429 70.9545008,0 63.2933896,0 C56.2933896,0 50.2656119,1.58142857 45.8322785,4.59 C49.4878341,7.44428571 51.8989452,11.4171429 52.8711674,16.2 Z" id="path26"></path>
                    <path d="M36.2222222,39.8442857 C36.2222222,40.1528571 36.2222222,40.4614286 36.2222222,40.8085714 C36.2222222,40.9628571 36.2222222,41.1171429 36.2222222,41.2328571 C36.4555556,46.71 39.1388889,50.1042857 41.6277778,52.1485714 C37.4277778,54.54 32.45,55.5428571 27.9777778,55.5428571 C11.6444444,55.5428571 2,44.0871429 2,28.3114286 C2,11.88 11.9555556,0 28.95,0 C41.2777778,0 51.3888889,6.48 52.4777778,19.17 L37.6611111,19.17 C37.6611111,14.3485714 34.2388889,11.7642857 29.4555556,11.7642857 C21.7944444,11.7642857 19.4222222,17.1257143 19.4222222,27 C19.4222222,37.0285714 21.6388889,42.8914286 29.4944444,42.8914286 C32.4111111,42.93 34.8222222,41.9271429 36.2222222,39.8442857 Z" id="path28"></path>
                </g>
            </g>
        </g>
    </g>
</svg>

<svg width="98" height="80" xmlns="http://www.w3.org/2000/svg"><g fill="#272638" fill-rule="nonzero"><path d="M1.283 67.124V64H3.54v3.124h1.828v1.813H3.539v5.323c0 .501.233.656.817.656.35 0 .7-.116 1.01-.193v1.851c-.622.077-1.166.155-1.788.155-1.672 0-2.295-.849-2.295-2.16v-5.593H0v-1.813l1.283-.039zM8.217 72.207c.039 1.929.894 2.7 1.944 2.7 1.05 0 1.517-.463 2.1-1.118l1.633 1.002c-.855 1.35-2.138 1.929-3.927 1.929C7.517 76.72 6 74.83 6 71.86 6 68.89 7.517 67 10.083 67c2.45 0 3.85 2.044 3.85 4.32v.926H8.217v-.039zm3.616-1.504c-.039-1.312-.739-2.044-1.789-2.044-1.088 0-1.75.771-1.788 2.044h3.577zM21.95 70.201c-.35-.81-.739-1.427-1.867-1.427-1.244 0-1.827.965-1.827 3.086 0 2.083.583 3.047 1.905 3.047.972 0 1.517-.656 1.983-1.504l1.712.964c-.895 1.659-2.062 2.353-3.773 2.353-2.527 0-4.083-1.89-4.083-4.86 0-2.97 1.517-4.86 4.083-4.86 1.79 0 3.19.926 3.695 2.507l-1.828.694zM25 77.037V64h2.256v4.667c.7-.578 1.594-1.196 2.683-1.196 1.867 0 2.8 1.235 2.8 3.125v6.441h-2.256v-6.094c0-1.273-.389-1.659-1.166-1.659-.973 0-1.711.579-2.1 1.003v6.789H25v-.039zM35 76.566v-9.373h2.061v1.003C37.878 67.617 38.85 67 39.94 67c1.867 0 2.761 1.234 2.761 3.124v6.442h-2.217V70.47c0-1.272-.389-1.658-1.166-1.658-.973 0-1.711.578-2.1 1.003v6.788H35v-.038zM48.083 67c2.567 0 4.084 1.89 4.084 4.86 0 2.97-1.517 4.86-4.084 4.86-2.566 0-4.083-1.89-4.083-4.86.039-2.97 1.556-4.86 4.083-4.86zm0 1.813c-1.244 0-1.827.964-1.827 3.086 0 2.082.583 3.047 1.827 3.047 1.245 0 1.828-.965 1.828-3.047.039-2.122-.583-3.086-1.828-3.086zM54 77.037V64h2.217v13.037zM62.083 67c2.567 0 4.084 1.89 4.084 4.86 0 2.97-1.517 4.86-4.084 4.86-2.566 0-4.083-1.89-4.083-4.86.039-2.97 1.556-4.86 4.083-4.86zm0 1.813c-1.244 0-1.827.964-1.827 3.086 0 2.082.583 3.047 1.827 3.047 1.245 0 1.828-.965 1.828-3.047.039-2.122-.544-3.086-1.828-3.086zM75.594 68.508c-.505 0-1.088 0-1.438.23.31.387.505.927.505 1.66 0 1.774-1.205 3.047-3.539 3.047-.972 0-1.75.038-1.75.578 0 1.505 6.184-.54 6.184 3.202 0 1.35-1.362 2.777-4.356 2.777-2.528 0-4.2-.772-4.2-2.237 0-1.157.894-1.736 1.672-1.736v-.077c-.428-.27-1.4-.502-1.4-1.504 0-.888 1.05-1.582 1.478-1.698-.778-.617-1.4-1.35-1.4-2.468 0-1.659 1.244-3.279 3.694-3.279.778 0 1.75.347 2.295.849.428-.579 1.128-.887 2.217-.849v1.505h.038zm-6.533 8.948c0 .694.622 1.042 2.489 1.042 1.439 0 1.944-.733 1.944-1.042 0-.424-.66-1.08-2.838-1.08-1.245 0-1.595.656-1.595 1.08zm1.983-8.833c-.972 0-1.633.695-1.633 1.543 0 .849.661 1.543 1.633 1.543.856 0 1.517-.694 1.517-1.543.039-.848-.661-1.543-1.517-1.543zM78 66.083V64h2.217v2.083H78zm2.256 8.37v2.777h-2.217v-9.373h2.217v6.596zM84.217 72.207c.039 1.929.894 2.7 1.944 2.7 1.05 0 1.517-.463 2.1-1.118l1.633 1.002c-.855 1.35-2.138 1.929-3.927 1.929-2.45 0-3.967-1.89-3.967-4.86 0-2.97 1.517-4.86 4.083-4.86 2.45 0 3.85 2.044 3.85 4.32v.926h-5.716v-.039zm3.616-1.504c-.039-1.312-.739-2.044-1.827-2.044-1.09 0-1.79.771-1.79 2.044h3.617zM96.289 69.661c-.467-.501-1.05-1.002-1.75-1.002-.856 0-1.245.347-1.245.925 0 1.62 4.706.926 4.706 4.359 0 1.928-1.478 2.816-3.461 2.816-1.478 0-2.722-.656-3.539-1.89l1.517-1.119c.505.733 1.205 1.35 2.177 1.35.778 0 1.323-.424 1.323-1.08 0-1.581-4.706-1.003-4.706-4.281 0-1.736 1.478-2.739 3.111-2.739 1.245 0 2.49.463 3.306 1.427l-1.44 1.234zM67.338 41.001c-1.79 2.739-4.667 4.436-7.856 4.436-4.355 0-7.972-1.967-7.972-6.634 0-6.904 10.15-9.334 17.928-9.797v2.044c.039 4.474-.04 6.866-2.1 9.951zM52.87 16.2c1.167-3.124 4.317-4.474 8.595-4.474 6.105 0 7.855 4.243 7.933 7.753l.039 1.697c-16.878.81-32.745 3.934-32.433 19.247.233 10.723 9.994 15.12 16.722 15.081 7.816 0 12.172-2.083 16.489-7.367.077 2.237.35 4.59.739 6.326h15.127c-.855-2.623-1.05-5.246-1.05-7.984v-27.81c0-6.75-1.283-10.53-4.939-13.809C76.633 1.736 70.955 0 63.293 0c-7 0-13.027 1.581-17.46 4.59 3.655 2.854 6.066 6.827 7.038 11.61z"/><path d="M36.222 39.844v1.389c.234 5.477 2.917 8.871 5.406 10.916-4.2 2.391-9.178 3.394-13.65 3.394C11.644 55.543 2 44.087 2 28.31 2 11.88 11.956 0 28.95 0c12.328 0 22.439 6.48 23.528 19.17H37.66c0-4.821-3.422-7.406-8.205-7.406-7.662 0-10.034 5.362-10.034 15.236 0 10.029 2.217 15.891 10.072 15.891 2.917.039 5.328-.964 6.728-3.047z"/></g></svg>
